#src/img/common/checkbox-checked.svg

<svg width="18" height="18" fill="none" xmlns="http://www.w3.org/2000/svg"><path d="M16 0H2C.9 0 0 .9 0 2v14c0 1.1.9 2 2 2h14c1.1 0 2-.9 2-2V2c0-1.1-.9-2-2-2zm0 16H2V2h14v14zM14.99 6l-1.41-1.42-6.59 6.59L4.41 8.6l-1.42 1.41 4 3.99 8-8z" fill="#202020"/></svg>

<svg width="18" height="18" viewBox="0 0 18 18" fill="none" xmlns="http://www.w3.org/2000/svg">
  <path d="M16 0H2C0.9 0 0 0.9 0 2V16C0 17.1 0.9 18 2 18H16C17.1 18 18 17.1 18 16V2C18 0.9 17.1 0 16 0ZM16 16H2V2H16V16ZM14.99 6L13.58 4.58L6.99 11.17L4.41 8.6L2.99 10.01L6.99 14L14.99 6Z" fill="#202020"/>
</svg>
